icons/.icons/Papirus/22x22/panel/obs-tray.svg

<svg xmlns="http://www.w3.org/2000/svg" width="22" height="22" version="1.1">
 <defs>
  <style id="current-color-scheme" type="text/css">
   .ColorScheme-Text { color:#dfdfdf; } .ColorScheme-Highlight { color:#4285f4; }
  </style>
 </defs>
 <path style="fill:currentColor" class="ColorScheme-Text" d="m 11.000031,3.0000003 a 8,8 0 0 0 -0.808594,0.041016 8,8 0 0 0 -0.7812495,0.1191406 c -0.206156,0.041816 -0.407285,0.096891 -0.607422,0.1542969 a 8,8 0 0 0 -0.177734,0.046875 c -0.03598,0.011226 -0.0697,0.027342 -0.105469,0.039063 a 8,8 0 0 0 -3.679688,2.5058594 c -0.0035,0.00424 -0.0082,0.00747 -0.01172,0.011719 a 8,8 0 0 0 -0.390624,0.5234372 c -0.02806,0.040253 -0.0586,0.078355 -0.08594,0.1191407 a 8,8 0 0 0 -0.271485,0.4433593 c -0.05078,0.087506 -0.102876,0.1741204 -0.150391,0.2636719 a 8,8 0 0 0 -0.193359,0.4042969 c -0.04636,0.1006576 -0.09447,0.1998949 -0.136719,0.3027344 a 8,8 0 0 0 -0.158203,0.4296875 c -0.03732,0.1081851 -0.07469,0.2159636 -0.107422,0.3261719 a 8,8 0 0 0 -0.09766,0.3769531 c -0.0354,0.144876 -0.0703,0.2896888 -0.09766,0.4375 a 8,8 0 0 0 -0.04883,0.3242187 c -0.02091,0.1464812 -0.04187,0.2925172 -0.05469,0.4414062 a 8,8 0 0 0 -0.03516,0.689453 8,8 0 0 0 0.04101,0.808594 c 2.59e-4,0.0026 -2.61e-4,0.0053 0,0.0078 a 8,8 0 0 0 0.119141,0.773438 c 0.04182,0.206155 0.09689,0.407284 0.154297,0.607422 a 8,8 0 0 0 0.04687,0.173828 c 0.01158,0.03719 0.02695,0.07242 0.03906,0.109375 a 8,8 0 0 0 2.50586,3.67969 c 0.0042,0.0035 0.0075,0.0082 0.01172,0.01172 a 8,8 0 0 0 0.523437,0.390624 c 0.04025,0.02806 0.07835,0.0586 0.11914,0.08594 a 8,8 0 0 0 0.44336,0.271484 c 0.08751,0.05078 0.17412,0.102875 0.263672,0.15039 a 8,8 0 0 0 0.404297,0.19336 c 0.100657,0.04636 0.199894,0.09447 0.302734,0.136719 a 8,8 0 0 0 0.429687,0.158203 c 0.108186,0.03732 0.215964,0.07469 0.326172,0.107422 a 8,8 0 0 0 0.376953,0.09766 c 0.144876,0.0354 0.289689,0.0703 0.4375,0.09766 a 8,8 0 0 0 0.324219,0.04883 c 0.1464805,0.02091 0.2925175,0.04187 0.4414055,0.05469 A 8,8 0 0 0 11,19 a 8,8 0 0 0 0.808593,-0.04102 8,8 0 0 0 0.0078,0 c 0.261895,-0.02671 0.519532,-0.06764 0.773438,-0.11914 0.206155,-0.04182 0.407284,-0.09689 0.607423,-0.154297 0.05477,-0.01571 0.111729,-0.02612 0.166015,-0.04297 a 8,8 0 0 0 0.01172,-0.0039 c 0.03598,-0.01123 0.0697,-0.02734 0.105469,-0.03906 a 8,8 0 0 0 3.679687,-2.50586 8,8 0 0 0 0.0098,-0.0098 c 5.8e-4,-7.03e-4 0.0014,-0.0012 0.002,-0.002 a 8,8 0 0 0 0.390545,-0.52336 c 0.02806,-0.04025 0.0586,-0.07836 0.08594,-0.119141 a 8,8 0 0 0 0.271484,-0.443359 c 0.05078,-0.08751 0.102875,-0.174121 0.15039,-0.263672 a 8,8 0 0 0 0.19336,-0.404297 c 0.04636,-0.100658 0.09447,-0.199895 0.136719,-0.302734 a 8,8 0 0 0 0.158203,-0.429688 c 0.03732,-0.108185 0.07469,-0.215963 0.107422,-0.326172 a 8,8 0 0 0 0.09766,-0.376953 c 0.0354,-0.144876 0.0703,-0.289688 0.09766,-0.4375 a 8,8 0 0 0 0.04883,-0.324218 c 0.02091,-0.146482 0.04187,-0.292518 0.05469,-0.441407 a 8,8 0 0 0 0.03514,-0.689453 8,8 0 0 0 -0.04102,-0.808594 8,8 0 0 0 0,-0.0078 C 18.932258,9.9216982 18.891338,9.6640616 18.839832,9.4101554 18.798012,9.2040001 18.742942,9.002871 18.685535,8.8027336 18.669825,8.7479646 18.659415,8.6910046 18.642565,8.636718 a 8,8 0 0 0 -0.0039,-0.011719 c -0.01123,-0.035983 -0.02734,-0.069703 -0.03906,-0.1054688 a 8,8 0 0 0 -2.505859,-3.6796874 8,8 0 0 0 -0.0098,-0.00977 c -7.03e-4,-5.805e-4 -0.0012,-0.00137 -0.002,-0.00195 A 8,8 0 0 0 15.558587,4.437499 C 15.518337,4.409438 15.480227,4.378898 15.439446,4.351562 A 8,8 0 0 0 14.996087,4.0800771 C 14.908577,4.0293001 14.821966,3.9772015 14.732415,3.9296865 A 8,8 0 0 0 14.328118,3.7363271 C 14.227461,3.6899641 14.128222,3.6418561 14.025384,3.5996084 A 8,8 0 0 0 13.595696,3.4414052 C 13.487512,3.4040892 13.379731,3.3667202 13.269524,3.3339834 a 8,8 0 0 0 -0.376953,-0.097656 c -0.144874,-0.035402 -0.289691,-0.070298 -0.4375,-0.097656 A 8,8 0 0 0 12.130853,3.0898434 C 11.984375,3.0689314 11.83833,3.0479744 11.689446,3.0351564 a 8,8 0 0 0 -0.689453,-0.035156 z m 0,2 a 6,6 0 0 1 5.958984,5.3632817 c -0.165881,-0.264184 -0.356033,-0.5177785 -0.591796,-0.7500005 -0.6576,-0.65104 -1.458057,-1.0371825 -2.404297,-1.1640624 -0.1408,-0.01888 -0.258692,-0.053462 -0.451172,0.017578 -0.19248,0.0704 -0.28695,0.2239925 -0.34375,0.3203125 -0.08208,0.13888 -0.550421,0.6177962 -0.812501,0.7851562 -0.74368,0.4752002 -2.015478,0.4753602 -2.7617175,0 -0.8824,-0.56208 -1.387236,-1.6648787 -1.228516,-2.6367187 0.08992,-0.55008 0.325531,-1.02726 0.712891,-1.4375 0.08048,-0.08528 0.140269,-0.1519753 0.189453,-0.2070313 0.01183,-0.013252 0.021,-0.029917 0.03125,-0.041016 A 6,6 0 0 1 11.000031,5.0000003 Z M 7.2637025,6.3046878 c -0.236615,0.5193882 -0.393804,1.187374 -0.392578,1.7363281 0.0012,0.512544 0.125881,1.1194208 0.320313,1.6054688 0.05136,0.12832 0.113228,0.3008796 0.298828,0.4160153 0.185616,0.1152 0.319507,0.1099 0.505859,0.13086 0.16192,0.01824 0.496644,0.09365 0.644532,0.144531 1.4894715,0.512432 2.1895305,2.218484 1.4902345,3.646484 -0.4691685,0.958016 -1.5978285,1.592853 -2.5898445,1.480469 -0.12848,-0.0144 -0.223107,-0.02212 -0.310547,-0.02149 -0.04368,3.04e-4 -0.0749,-0.0068 -0.167968,0.02149 -0.01099,0.003 -0.02904,0.01219 -0.04297,0.01758 A 6,6 0 0 1 5.0000305,11 6,6 0 0 1 7.2637025,6.3046878 Z m 0.457032,1.5253906 0.0019,0.00195 c 0.10496,0.6310241 0.358067,1.1659472 0.783203,1.6582032 -0.14592,-0.03312 -0.287633,-0.07903 -0.417969,-0.09375 -0.14608,-0.01664 -0.153265,-0.020966 -0.140625,-0.00977 -0.0048,-0.0112 -0.0028,-0.00767 -0.01563,-0.037109 -0.1464,-0.36624 -0.258806,-0.93778 -0.259766,-1.3125 -1.28e-4,-0.05536 0.04275,-0.1404553 0.04883,-0.2070313 z m 6.1015625,1.3984375 c 0.0096,5.76e-4 -0.02552,0.00762 0.0332,0.015625 0.326176,0.04368 0.52545,0.2719474 0.794922,0.3808594 -0.337936,-0.05104 -0.644347,-0.245852 -0.990234,-0.1875 -0.06896,0.0112 -0.08905,0.092062 -0.15625,0.1074219 0.1016,-0.1136 0.245912,-0.2004063 0.318359,-0.3164063 z m 0.416015,0.9648441 c 1.038352,0.02464 2.06246,0.718765 2.4375,1.716797 0.02976,0.07936 0.05111,0.139356 0.07031,0.1875 0.0096,0.024 0.01989,0.04404 0.03125,0.06836 0.0064,0.0128 0.01076,0.02377 0.02148,0.04297 0.0048,0.0096 0.01272,0.02159 0.02344,0.03711 0.0066,0.0095 0.02032,0.02334 0.03516,0.03906 a 6,6 0 0 1 -5.857421,4.714845 6,6 0 0 1 -2.5214845,-0.564454 c 0.364128,2.48e-4 0.725148,-0.02505 1.025391,-0.117188 l 0.03125,-0.0098 0.02148,-0.01172 0.0059,-0.0039 c 0.8105595,-0.26456 1.6607795,-0.859324 2.1308595,-1.519531 l 0.251953,-0.34961 -0.232422,-0.697266 c -0.53872,-1.630079 0.410992,-3.220032 2.082032,-3.501952 0.14704,-0.0248 0.294239,-0.03477 0.443358,-0.03125 z m -1.990235,0.203125 c -0.57888,0.4704 -1.03987,1.055197 -1.27539,1.716797 -0.22288,-0.63856 -0.64366,-1.226193 -1.1874995,-1.695313 0.8063995,0.30208 1.6662495,0.301236 2.4628895,-0.02148 z m -1.279296,3.624999 0.08789,0.269532 -0.01563,0.02148 c -0.0912,0.12816 -0.34043,0.209672 -0.496094,0.347656 0.08432,-0.12576 0.237471,-0.185017 0.304688,-0.322265 0.05152,-0.10512 0.08154,-0.211111 0.119141,-0.316407 z"/>
</svg>

<svg xmlns="http://www.w3.org/2000/svg" width="22" height="22" version="1.1">
 <defs>
  <style id="current-color-scheme" type="text/css">
   .ColorScheme-Text { color:#dfdfdf; } .ColorScheme-Highlight { color:#4285f4; } .ColorScheme-NeutralText { color:#ff9800; } .ColorScheme-PositiveText { color:#4caf50; } .ColorScheme-NegativeText { color:#f44336; }
  </style>
 </defs>
 <path style="fill:currentColor" class="ColorScheme-Text" d="M 11,3 A 8,8 0 0 0 3,11 8,8 0 0 0 11,19 8,8 0 0 0 19,11 8,8 0 0 0 11,3 Z M 11,5 A 6,6 0 0 1 16.959,10.363 C 16.793,10.099 16.603,9.8455 16.367,9.6133 15.71,8.9622 14.909,8.5761 13.963,8.4492 13.822,8.4303 13.704,8.3958 13.512,8.4668 13.319,8.5372 13.225,8.6908 13.168,8.7871 13.086,8.926 12.618,9.4049 12.355,9.5723 11.612,10.047 10.34,10.048 9.5938,9.5723 8.7113,9.0102 8.2064,7.9074 8.3652,6.9355 8.4551,6.3855 8.6907,5.9083 9.0781,5.498 9.1585,5.4128 9.2184,5.3461 9.2676,5.291 9.2794,5.2778 9.2885,5.2611 9.2988,5.25 A 6,6 0 0 1 11,5 Z M 7.2637,6.3047 C 7.0271,6.8241 6.8699,7.4921 6.8711,8.041 6.8723,8.5536 6.997,9.1604 7.1914,9.6465 7.2428,9.7748 7.3046,9.9469 7.4902,10.062 7.6758,10.178 7.8098,10.172 7.9961,10.193 8.158,10.212 8.4927,10.287 8.6406,10.338 10.13,10.85 10.83,12.556 10.131,13.984 9.6616,14.942 8.5331,15.577 7.541,15.465 7.4126,15.45 7.3179,15.443 7.2305,15.443 7.1868,15.444 7.1556,15.437 7.0625,15.465 7.0515,15.468 7.0334,15.477 7.0195,15.482 A 6,6 0 0 1 5,11 6,6 0 0 1 7.2637,6.3047 Z M 7.7207,7.8301 7.7227,7.832 C 7.8277,8.4631 8.0808,8.998 8.5059,9.4902 8.36,9.4571 8.2182,9.4112 8.0879,9.3965 7.9418,9.3798 7.9347,9.3755 7.9473,9.3867 7.9425,9.3755 7.9444,9.379 7.9316,9.3496 7.7852,8.9834 7.6729,8.4118 7.6719,8.0371 7.6718,7.9817 7.7146,7.8966 7.7207,7.8301 Z M 13.822,9.2285 C 13.832,9.2291 13.797,9.2361 13.855,9.2441 14.182,9.2878 14.381,9.5161 14.65,9.625 14.312,9.574 14.006,9.3791 13.66,9.4375 13.591,9.4487 13.571,9.5296 13.504,9.5449 13.606,9.4313 13.75,9.3445 13.822,9.2285 Z M 14.238,10.193 C 15.277,10.218 16.301,10.912 16.676,11.91 16.706,11.99 16.727,12.05 16.746,12.098 16.756,12.122 16.766,12.142 16.777,12.166 16.784,12.179 16.788,12.19 16.799,12.209 16.804,12.219 16.812,12.231 16.822,12.246 16.829,12.256 16.843,12.269 16.857,12.285 A 6,6 0 0 1 11,17 6,6 0 0 1 8.4785,16.436 C 8.8427,16.436 9.2037,16.41 9.5039,16.318 L 9.5352,16.309 9.5566,16.297 9.5625,16.293 C 10.373,16.028 11.223,15.434 11.693,14.773 L 11.945,14.424 11.713,13.727 C 11.174,12.096 12.124,10.507 13.795,10.225 13.942,10.2 14.089,10.19 14.238,10.193 Z M 12.248,10.396 C 11.669,10.867 11.208,11.452 10.973,12.113 10.75,11.475 10.329,10.887 9.7852,10.418 10.592,10.72 11.451,10.719 12.248,10.396 Z M 10.969,14.021 11.057,14.291 11.041,14.312 C 10.95,14.442 10.701,14.522 10.545,14.66 10.629,14.534 10.782,14.475 10.85,14.338 10.901,14.233 10.931,14.127 10.969,14.021 Z"/>
</svg>
